static/images/confluence.svg

<svg viewBox="0 0 64 61" xmlns="http://www.w3.org/2000/svg" xmlns:xlink="http://www.w3.org/1999/xlink">
    <defs>
        <linearGradient x1="99.140087%" y1="112.708084%" x2="33.8589812%" y2="37.7549606%" id="linearGradient-1">
            <stop stop-color="#0052CC" offset="18%"></stop>
            <stop stop-color="#2684FF" offset="100%"></stop>
        </linearGradient>
        <linearGradient x1="7053.82653%" y1="-161634%" x2="6067.18134%" y2="-163895%" id="linearGradient-2">
            <stop stop-color="#0052CC" offset="18%"></stop>
            <stop stop-color="#2684FF" offset="100%"></stop>
        </linearGradient>
    </defs>
    <g id="Page-1" stroke="none" stroke-width="1" fill="none" fill-rule="evenodd">
        <g id="Confluence-blue" transform="translate(0.000000, -3.000000)" fill-rule="nonzero">
            <path d="M3.23,49.53 C2.58,50.59 1.85,51.82 1.23,52.8 C0.675051866,53.7377932 0.972970238,54.9472528 1.9,55.52 L14.9,63.52 C15.3563267,63.8017439 15.9066877,63.8884166 16.4275199,63.7605589 C16.948352,63.6327012 17.396014,63.3010265 17.67,62.84 C18.19,61.97 18.86,60.84 19.59,59.63 C24.74,51.13 29.92,52.17 39.26,56.63 L52.15,62.76 C52.63819,62.9923645 53.1996589,63.0171765 53.7064427,62.828781 C54.2132266,62.6403855 54.6221444,62.254835 54.84,61.76 L61.03,47.76 C61.4673336,46.7601044 61.0223391,45.594219 60.03,45.14 C57.31,43.86 51.9,41.31 47.03,38.96 C29.51,30.45 14.62,31 3.23,49.53 Z" id="Shape" fill="url(#linearGradient-1)"></path>
            <path d="M61.52,17.76 C62.17,16.7 62.9,15.47 63.52,14.49 C64.0749481,13.5522068 63.7770298,12.3427472 62.85,11.77 L49.85,3.77 C49.3899499,3.46014164 48.8218804,3.3552517 48.2815113,3.48038981 C47.7411422,3.60552792 47.2770092,3.94945423 47,4.43 C46.48,5.3 45.81,6.43 45.08,7.64 C39.93,16.14 34.75,15.1 25.41,10.64 L12.56,4.54 C12.07181,4.30763549 11.5103411,4.28282354 11.0035573,4.47121901 C10.4967734,4.65961449 10.0878556,5.04516503 9.87,5.54 L3.68,19.54 C3.24266642,20.5398956 3.68766087,21.705781 4.68,22.16 C7.4,23.44 12.81,25.99 17.68,28.34 C35.24,36.84 50.13,36.27 61.52,17.76 Z" id="Shape" fill="url(#linearGradient-2)"></path>
        </g>
    </g>
</svg>

<svg viewBox="0 0 64 61" xmlns="http://www.w3.org/2000/svg"><defs><linearGradient x1="99.14%" y1="112.708%" x2="33.859%" y2="37.755%" id="a"><stop stop-color="#0052CC" offset="18%"/><stop stop-color="#2684FF" offset="100%"/></linearGradient><linearGradient x1="7053.827%" y1="-161634%" x2="6067.181%" y2="-163895%" id="b"><stop stop-color="#0052CC" offset="18%"/><stop stop-color="#2684FF" offset="100%"/></linearGradient></defs><g fill-rule="nonzero" fill="none"><path d="M3.23 49.53c-.65 1.06-1.38 2.29-2 3.27a2 2 0 0 0 .67 2.72l13 8a2 2 0 0 0 2.77-.68c.52-.87 1.19-2 1.92-3.21 5.15-8.5 10.33-7.46 19.67-3l12.89 6.13a2 2 0 0 0 2.69-1l6.19-14a2 2 0 0 0-1-2.62c-2.72-1.28-8.13-3.83-13-6.18C29.51 30.45 14.62 31 3.23 49.53z" fill="url(#a)" transform="translate(0 -3)"/><path d="M61.52 17.76c.65-1.06 1.38-2.29 2-3.27a2 2 0 0 0-.67-2.72l-13-8a2 2 0 0 0-2.85.66c-.52.87-1.19 2-1.92 3.21-5.15 8.5-10.33 7.46-19.67 3l-12.85-6.1a2 2 0 0 0-2.69 1l-6.19 14a2 2 0 0 0 1 2.62c2.72 1.28 8.13 3.83 13 6.18 17.56 8.5 32.45 7.93 43.84-10.58z" fill="url(#b)" transform="translate(0 -3)"/></g></svg>
